docs/img/product-detail/delivery-ic-01.svg

<svg width="45" height="45" viewBox="0 0 45 45" fill="none" xmlns="http://www.w3.org/2000/svg">
<path d="M43.9766 29.4854H43.2865V23.2744C43.2865 23.0914 43.2138 22.9159 43.0843 22.7864C42.9549 22.657 42.7794 22.5843 42.5963 22.5843H39.1458V16.3734C39.1458 16.1904 39.0732 16.0148 38.9438 15.8854C38.8143 15.7559 38.6388 15.6833 38.4558 15.6833H30.1745C29.9914 15.6833 29.8159 15.7559 29.6865 15.8854C29.5571 16.0148 29.4843 16.1904 29.4843 16.3734V22.5843H26.0338C25.8508 22.5843 25.6753 22.657 25.5459 22.7864C25.4164 22.9159 25.3438 23.0914 25.3438 23.2744V29.4854H23.9635V24.2902C23.9656 23.649 23.788 23.02 23.4508 22.4745C23.1138 21.9291 22.6306 21.489 22.0561 21.2041L17.0625 18.7073V16.5355C17.9903 15.7901 18.6528 14.7651 18.9513 13.6129H20.1817C20.6356 13.6126 21.0707 13.4321 21.3916 13.1113C21.7124 12.7904 21.8928 12.3553 21.8933 11.9014V11.1838C21.8923 10.7507 21.7262 10.3344 21.4288 10.0195C22.0711 9.05403 22.4651 7.94495 22.5758 6.79053C22.6738 5.02184 21.7925 3.41941 20.0299 2.15721C18.4474 1.05242 16.5577 0.473031 14.6278 0.500965H10.8516C10.2273 0.501431 9.62167 0.713089 9.133 1.10151C8.64433 1.48993 8.30142 2.03226 8.16017 2.64029C7.55217 2.78158 7.00983 3.12445 6.62142 3.61311C6.23296 4.10176 6.0213 4.70746 6.02083 5.33169V9.81736C5.80728 9.97561 5.63366 10.1815 5.51384 10.4188C5.39403 10.656 5.33132 10.918 5.33073 11.1838V11.9014C5.33109 12.3553 5.51152 12.7904 5.83241 13.1113C6.15329 13.4321 6.58842 13.6126 7.04217 13.6129H8.27267C8.57117 14.7651 9.23358 15.7901 10.1615 16.5355V18.7073L5.16787 21.2041C4.5934 21.489 4.11023 21.9291 3.7731 22.4745C3.43597 23.02 3.25837 23.649 3.26042 24.2902V29.4854H1.1901C1.00708 29.4854 0.83155 29.558 0.702125 29.6874C0.572708 29.8169 0.5 29.9924 0.5 30.1754V34.316C0.5 34.4991 0.572708 34.6746 0.702125 34.804C0.83155 34.9334 1.00708 35.0062 1.1901 35.0062H2.57032V43.9775C2.57032 44.1605 2.64302 44.3361 2.77244 44.4655C2.90186 44.5949 3.07739 44.6676 3.26042 44.6676H41.9063C42.0893 44.6676 42.2648 44.5949 42.3943 44.4655C42.5237 44.3361 42.5963 44.1605 42.5963 43.9775V35.0062H43.9766C44.1596 35.0062 44.3351 34.9334 44.4646 34.804C44.594 34.6746 44.6667 34.4991 44.6667 34.316V30.1754C44.6667 29.9924 44.594 29.8169 44.4646 29.6874C44.3351 29.558 44.1596 29.4854 43.9766 29.4854ZM41.9063 29.4854H35.0052V23.9645H36.3854V26.0348C36.3854 26.2179 36.4581 26.3934 36.5875 26.5228C36.717 26.6522 36.8925 26.7249 37.0755 26.7249H39.8359C40.019 26.7249 40.1945 26.6522 40.3239 26.5228C40.4533 26.3934 40.526 26.2179 40.526 26.0348V23.9645H41.9063V29.4854ZM39.1458 23.9645V25.3447H37.7657V23.9645H39.1458ZM35.0052 17.0634V18.4437H33.625V17.0634H35.0052ZM30.8646 17.0634H32.2448V19.1338C32.2448 19.3168 32.3175 19.4924 32.4469 19.6218C32.5763 19.7512 32.7518 19.8239 32.9349 19.8239H35.6953C35.8783 19.8239 36.0538 19.7512 36.1833 19.6218C36.3128 19.4924 36.3854 19.3168 36.3854 19.1338V17.0634H37.7657V22.5843H30.8646V17.0634ZM30.8646 23.9645V25.3447H29.4843V23.9645H30.8646ZM26.724 23.9645H28.1042V26.0348C28.1042 26.2179 28.1768 26.3934 28.3063 26.5228C28.4358 26.6522 28.6112 26.7249 28.7943 26.7249H31.5547C31.7378 26.7249 31.9133 26.6522 32.0427 26.5228C32.1721 26.3934 32.2448 26.2179 32.2448 26.0348V23.9645H33.625V29.4854H26.724V23.9645ZM20.513 11.9014C20.5128 11.9893 20.4779 12.0734 20.4158 12.1355C20.3538 12.1976 20.2696 12.2325 20.1817 12.2327H19.1328V10.8525H20.1817C20.2696 10.8527 20.3538 10.8877 20.4158 10.9498C20.4779 11.0119 20.5128 11.0959 20.513 11.1838V11.9014ZM8.78125 3.95148C8.96425 3.95148 9.13983 3.87877 9.26925 3.74936C9.39867 3.61994 9.47133 3.44441 9.47133 3.26138C9.47133 2.89532 9.61675 2.54426 9.87558 2.28542C10.1344 2.02659 10.4855 1.88117 10.8516 1.88117H14.6278C16.2698 1.85388 17.8788 2.34347 19.2273 3.28071C20.6076 4.26755 21.2694 5.42347 21.1983 6.71536C21.1521 7.55795 20.8974 8.11836 20.1535 9.47228H19.1328V8.7822C19.1328 8.5992 19.0601 8.42361 18.9307 8.2942C18.8013 8.16478 18.6258 8.09211 18.4427 8.09211C13.8915 8.09211 12.18 5.72988 12.1117 5.63326C12.0576 5.55376 11.9874 5.48644 11.9057 5.43564C11.824 5.38484 11.7326 5.35168 11.6373 5.3383C11.5421 5.32491 11.445 5.33159 11.3525 5.35791C11.26 5.38422 11.174 5.42959 11.1 5.49111C9.61283 6.72911 8.9055 6.72086 8.93375 6.72845C8.83267 6.70553 8.72775 6.7057 8.62675 6.72895C8.52575 6.75211 8.43133 6.79778 8.35033 6.86245C8.26942 6.92711 8.20408 7.00928 8.15917 7.1027C8.11433 7.19603 8.09108 7.29836 8.09117 7.40203V9.47228H7.401V5.33169C7.401 4.96564 7.54642 4.61457 7.80533 4.35574C8.06417 4.0969 8.41517 3.95148 8.78125 3.95148ZM7.04217 12.2327C6.95442 12.2325 6.87025 12.1976 6.80817 12.1355C6.74608 12.0734 6.71108 11.9893 6.71092 11.9014V11.1838C6.71108 11.0959 6.74608 11.0119 6.80817 10.9498C6.87025 10.8877 6.95442 10.8527 7.04217 10.8525H8.09117V12.2327H7.04217ZM9.47133 12.2327V8.01828C10.1924 7.79661 10.8651 7.4407 11.454 6.96928C12.2822 7.80161 14.2393 9.2812 17.7526 9.4537V12.2327C17.7526 13.3309 17.3163 14.3841 16.5398 15.1606C15.7633 15.9371 14.7102 16.3734 13.612 16.3734C12.5138 16.3734 11.4607 15.9371 10.6841 15.1606C9.90758 14.3841 9.47133 13.3309 9.47133 12.2327ZM13.612 17.7535C14.3219 17.7534 15.025 17.6154 15.6823 17.3471V19.1338C15.6823 19.6829 15.4642 20.2094 15.0759 20.5977C14.6877 20.9859 14.1611 21.2041 13.612 21.2041C13.0629 21.2041 12.5363 20.9859 12.1481 20.5977C11.7598 20.2094 11.5417 19.6829 11.5417 19.1338V17.3471C12.1989 17.6154 12.9021 17.7534 13.612 17.7535ZM4.64062 24.2902C4.63953 23.9056 4.74611 23.5283 4.94832 23.201C5.15053 22.8739 5.44029 22.6098 5.78482 22.4387L10.3395 20.1614C10.5548 20.8621 10.9892 21.4754 11.5788 21.9111C12.1685 22.3468 12.8823 22.5819 13.6154 22.5819C14.3486 22.5819 15.0624 22.3468 15.652 21.9111C16.2417 21.4754 16.676 20.8621 16.8913 20.1614L21.4426 22.4387C21.7865 22.6102 22.0755 22.8745 22.2771 23.2017C22.4787 23.5289 22.5848 23.9059 22.5833 24.2902V29.4854H19.1328V26.0348C19.1328 25.8518 19.0601 25.6763 18.9307 25.5469C18.8013 25.4174 18.6258 25.3447 18.4427 25.3447C18.2597 25.3447 18.0842 25.4174 17.9548 25.5469C17.8253 25.6763 17.7526 25.8518 17.7526 26.0348V29.4854H9.47133V26.0348C9.47133 25.8518 9.39867 25.6763 9.26925 25.5469C9.13983 25.4174 8.96425 25.3447 8.78125 25.3447C8.59825 25.3447 8.42267 25.4174 8.29325 25.5469C8.16383 25.6763 8.09117 25.8518 8.09117 26.0348V29.4854H4.64062V24.2902ZM41.2162 43.2874H3.95052V35.0062H41.2162V43.2874ZM43.2865 33.6259H1.88021V30.8655H43.2865V33.6259Z" fill="#397345"/>
</svg>

<svg width="45" height="45" fill="none" xmlns="http://www.w3.org/2000/svg"><path d="M43.977 29.485h-.69v-6.21a.69.69 0 00-.69-.69h-3.451v-6.212a.69.69 0 00-.69-.69h-8.282a.69.69 0 00-.69.69v6.211h-3.45a.69.69 0 00-.69.69v6.211h-1.38V24.29a3.432 3.432 0 00-1.908-3.086l-4.994-2.497v-2.172a5.527 5.527 0 001.89-2.922h1.23a1.713 1.713 0 001.711-1.712v-.717a1.701 1.701 0 00-.464-1.164 7.043 7.043 0 001.147-3.23c.098-1.768-.784-3.37-2.546-4.633A9.204 9.204 0 0014.628.501h-3.776a2.765 2.765 0 00-2.692 2.14 2.765 2.765 0 00-2.14 2.69v4.486a1.705 1.705 0 00-.69 1.367v.717a1.713 1.713 0 001.712 1.712h1.23a5.526 5.526 0 001.89 2.922v2.172l-4.994 2.497A3.433 3.433 0 003.26 24.29v5.195H1.19a.69.69 0 00-.69.69v4.141a.69.69 0 00.69.69h1.38v8.971a.69.69 0 00.69.69h38.646a.69.69 0 00.69-.69v-8.97h1.38a.69.69 0 00.69-.691v-4.14a.69.69 0 00-.69-.69zm-2.07 0h-6.902v-5.52h1.38v2.07a.69.69 0 00.69.69h2.76a.69.69 0 00.691-.69v-2.07h1.38v5.52zm-2.761-5.52v1.38h-1.38v-1.38h1.38zm-4.14-6.902v1.38h-1.381v-1.38h1.38zm-4.141 0h1.38v2.07a.69.69 0 00.69.69h2.76a.69.69 0 00.69-.69v-2.07h1.38v5.521h-6.9v-5.52zm0 6.902v1.38h-1.38v-1.38h1.38zm-4.141 0h1.38v2.07a.69.69 0 00.69.69h2.76a.69.69 0 00.69-.69v-2.07h1.381v5.52h-6.901v-5.52zM20.513 11.9a.332.332 0 01-.331.332h-1.05v-1.38h1.05a.332.332 0 01.331.33v.718zM8.781 3.951a.69.69 0 00.69-.69 1.38 1.38 0 011.38-1.38h3.777a7.831 7.831 0 014.6 1.4c1.38.987 2.041 2.142 1.97 3.434-.046.843-.3 1.403-1.044 2.757h-1.021v-.69a.69.69 0 00-.69-.69c-4.552 0-6.263-2.362-6.331-2.459a.69.69 0 00-1.012-.142C9.613 6.73 8.906 6.721 8.934 6.728a.69.69 0 00-.843.674v2.07h-.69v-4.14a1.38 1.38 0 011.38-1.38zm-1.739 8.282a.332.332 0 01-.331-.332v-.717a.332.332 0 01.331-.332h1.05v1.38h-1.05zm2.43 0V8.018a5.988 5.988 0 001.982-1.049c.828.833 2.785 2.312 6.299 2.485v2.779a4.14 4.14 0 01-8.282 0zm4.14 5.52a5.48 5.48 0 002.07-.406v1.787a2.07 2.07 0 11-4.14 0v-1.787a5.48 5.48 0 002.07.406zM4.641 24.29a2.061 2.061 0 011.144-1.851l4.554-2.278a3.427 3.427 0 006.552 0l4.552 2.278a2.06 2.06 0 011.14 1.851v5.195h-3.45v-3.45a.69.69 0 00-1.38 0v3.45H9.47v-3.45a.69.69 0 10-1.38 0v3.45H4.64V24.29zm36.575 18.997H3.951v-8.28h37.265v8.28zm2.07-9.661H1.88v-2.76h41.406v2.76z" fill="#397345"/></svg>
